svg/amazon.svg

<svg width="24" height="24" viewBox="0 0 24 24" xmlns="http://www.w3.org/2000/svg">
<path d="M15.93 17.09C15.75 17.25 15.5 17.26 15.3 17.15C14.41 16.41 14.25 16.07 13.76 15.36C12.29 16.86 11.25 17.31 9.34003 17.31C7.09003 17.31 5.33003 15.92 5.33003 13.14C5.33003 10.96 6.50003 9.5 8.19003 8.76C9.65003 8.12 11.68 8 13.23 7.83V7.5C13.23 6.84 13.28 6.09 12.9 5.54C12.58 5.05 11.95 4.84 11.4 4.84C10.38 4.84 9.47003 5.37 9.25003 6.45C9.20003 6.69 9.00003 6.93 8.78003 6.94L6.18003 6.66C5.96003 6.61 5.72003 6.44 5.78003 6.1C6.38003 2.95 9.23003 2 11.78 2C13.08 2 14.78 2.35 15.81 3.33C17.11 4.55 17 6.18 17 7.95V12.12C17 13.37 17.5 13.93 18 14.6C18.17 14.85 18.21 15.14 18 15.31L15.94 17.09H15.93ZM13.23 10.56V10C11.29 10 9.24003 10.39 9.24003 12.67C9.24003 13.83 9.85003 14.62 10.87 14.62C11.63 14.62 12.3 14.15 12.73 13.4C13.25 12.47 13.23 11.6 13.23 10.56ZM20.16 19.54C18 21.14 14.82 22 12.1 22C8.29003 22 4.85003 20.59 2.25003 18.24C2.05003 18.06 2.23003 17.81 2.50003 17.95C5.28003 19.58 8.75003 20.56 12.33 20.56C14.74 20.56 17.4 20.06 19.84 19.03C20.21 18.87 20.5 19.27 20.16 19.54ZM21.07 18.5C20.79 18.14 19.22 18.33 18.5 18.42C18.31 18.44 18.28 18.26 18.47 18.12C19.71 17.24 21.76 17.5 22 17.79C22.24 18.09 21.93 20.14 20.76 21.11C20.58 21.27 20.41 21.18 20.5 21C20.76 20.33 21.35 18.86 21.07 18.5Z"/>
</svg>

<svg width="24" height="24" viewBox="0 0 24 24" xmlns="http://www.w3.org/2000/svg"><path d="M15.93 17.09c-.18.16-.43.17-.63.06-.89-.74-1.05-1.08-1.54-1.79-1.47 1.5-2.51 1.95-4.42 1.95-2.25 0-4.01-1.39-4.01-4.17 0-2.18 1.17-3.64 2.86-4.38 1.46-.64 3.49-.76 5.04-.93V7.5c0-.66.05-1.41-.33-1.96-.32-.49-.95-.7-1.5-.7-1.02 0-1.93.53-2.15 1.61-.05.24-.25.48-.47.49l-2.6-.28c-.22-.05-.46-.22-.4-.56.6-3.15 3.45-4.1 6-4.1 1.3 0 3 .35 4.03 1.33C17.11 4.55 17 6.18 17 7.95v4.17c0 1.25.5 1.81 1 2.48.17.25.21.54 0 .71l-2.06 1.78h-.01zm-2.7-6.53V10c-1.94 0-3.99.39-3.99 2.67 0 1.16.61 1.95 1.63 1.95.76 0 1.43-.47 1.86-1.22.52-.93.5-1.8.5-2.84zm6.93 8.98C18 21.14 14.82 22 12.1 22c-3.81 0-7.25-1.41-9.85-3.76-.2-.18-.02-.43.25-.29 2.78 1.63 6.25 2.61 9.83 2.61 2.41 0 5.07-.5 7.51-1.53.37-.16.66.24.32.51zm.91-1.04c-.28-.36-1.85-.17-2.57-.08-.19.02-.22-.16-.03-.3 1.24-.88 3.29-.62 3.53-.33.24.3-.07 2.35-1.24 3.32-.18.16-.35.07-.26-.11.26-.67.85-2.14.57-2.5z"/></svg>
